vsi/bell_light.svg

<svg viewBox="0 0 16 16" fill="none" xmlns="http://www.w3.org/2000/svg" height="1em" width="1em">
  <path d="M13.3774 10.5735C13.1262 9.80788 12.9946 9.00633 12.9946 8.19282V6.19493C13.0066 4.92681 12.5639 3.69457 11.7265 2.74946C10.8891 1.79239 9.74057 1.18226 8.48441 1.02673C7.79054 0.954953 7.08469 1.02673 6.41474 1.25404C5.74479 1.46938 5.13466 1.82828 4.62023 2.30682C4.1058 2.77339 3.68709 3.34764 3.41193 3.9817C3.13677 4.61576 2.98124 5.29767 2.98124 6.00351V8.20478C2.98124 9.00633 2.84965 9.80788 2.59841 10.5735L2.00024 12.3441L2.47878 13.0021H5.98406C5.98406 13.5285 6.1994 14.0429 6.57027 14.4138C6.94113 14.7847 7.45556 15 7.98195 15C8.50834 15 9.02277 14.7847 9.39363 14.4138C9.7645 14.0429 9.97984 13.5285 9.97984 13.0021H13.4851L13.9637 12.3441L13.3774 10.5735ZM8.68779 13.7199C8.49638 13.9113 8.24515 14.019 7.98195 14.019C7.71876 14.019 7.46752 13.9113 7.27611 13.7199C7.08469 13.5285 6.97702 13.2773 6.97702 13.0141H8.97491C8.98688 13.2773 8.87921 13.5285 8.68779 13.7199ZM3.17266 12.0091L3.54352 10.8965C3.83065 10.0232 3.98617 9.114 3.98617 8.20478V6.00351C3.98617 5.44123 4.1058 4.89092 4.33311 4.38845C4.56041 3.87403 4.88343 3.41942 5.30215 3.04855C5.72087 2.66572 6.21137 2.3786 6.73776 2.21111C7.27611 2.03166 7.83839 1.97184 8.38871 2.03166C9.39363 2.16326 10.3268 2.66572 10.9848 3.43138C11.6547 4.19704 12.0017 5.19 11.9897 6.20689V8.21675C11.9897 9.12596 12.1333 10.0352 12.4323 10.9085L12.8032 12.0211H3.17266V12.0091Z" fill="#424242"/>
</svg>

<svg viewBox="0 0 16 16" fill="none" xmlns="http://www.w3.org/2000/svg" height="1em" width="1em">
  <path d="M13.377 10.573a7.63 7.63 0 0 1-.382-2.38V6.195a5.115 5.115 0 0 0-1.268-3.446 5.138 5.138 0 0 0-3.243-1.722c-.693-.072-1.4 0-2.07.227-.67.215-1.28.574-1.794 1.053a4.923 4.923 0 0 0-1.208 1.675 5.067 5.067 0 0 0-.43 2.022v2.2a7.61 7.61 0 0 1-.384 2.37L2 12.343l.479.658h3.505c0 .526.215 1.04.586 1.412.371.37.886.586 1.412.586.526 0 1.04-.215 1.412-.586.37-.371.586-.886.586-1.412h3.505l.479-.658-.587-1.77Zm-4.69 3.147a.997.997 0 0 1-.705.299.997.997 0 0 1-.706-.3.997.997 0 0 1-.299-.705h1.998a.939.939 0 0 1-.287.706Zm-5.514-1.71.37-1.114a8.632 8.632 0 0 0 .443-2.691V6.004c0-.563.12-1.113.347-1.616.227-.514.55-.969.97-1.34.418-.382.908-.67 1.435-.837.538-.18 1.1-.24 1.65-.18a4.147 4.147 0 0 1 2.597 1.4 4.133 4.133 0 0 1 1.005 2.776v2.01a8.3 8.3 0 0 0 .442 2.691l.371 1.113h-9.63v-.012Z" fill="#424242"/>
</svg>
